X:45
T:Eltham Assembly. Ru1.045
%%VWML:RutherfordVol1-2248-p23-0p23
Z:Transcription by Village Music Project, Steve Mansfield July 2015
F:http://www.village-music-project.org.uk/
F:http://www.vwml.org/record/RutherfordVol1/2248/p23
M:6/8
Q:3/8=110
K:Bb
B2f dBb|a2g Tf3|gfe dcB|A2B A/B/cF|
B2e dBb|a2g Tf3|gfe dcB|c3B3 :|
|: c2f e2d|c2B AGF|f2b a2g|f2e dcB|
eg2 df2|ce2 dcB|g3 fab|c3B3 :|
W:
W: The first Cou. leads down between the 2d Cou. foot it
W: lead up again & cast off .|  do the same with the 3d.
W: Cou. :|  Clap Hands Sides & to your Partner and
W: right Hand & Left up into the 2d Couples Place .|.
W: Hands round all six & turn :|
|:
T:Moll Ross. Ru1.046
L:1/8
B:RUTHERFORD Complete Collection of 200 Country Dances Vol.1; London: David & John Rutherford 1756.
Z:vmp.Mike Hicken 2015 www.village-music-project.org.uk
N: NB undotted in MS
M:6/8
Q:3/8=110
K:C
c/B/|c2G EFE|DED B3|c2G EFE|G3"NB"c3:|
|:ceg gec|Bcd dBG|cdc edc|e3g3|
geg fdf|ece dcB|c2G EFE|G3c3 :|
W:
W: The first Cou. sets to the 2d Wo. .|  The same to
W: the Man :|  Lead down between the 2d Cou. &
W: without the 3d and turn your Partne .|.  Lead
W: up to the Top foot it & cast off :||:  foot it Corners
W: but not turn :||  Hands round all six .||. Rt. Hand
W: and Left at Top :|
|:
